X:1
T:Title
%%score { ( 1 3 ) | ( 2 4 ) }
L:1/8
Q:1/4=108
M:4/4
K:Eb
V:1 treble nm="Grand Piano"
V:3 treble 
V:2 bass 
V:4 bass 
V:1
 G2 G2 G>F E>[B,DF] | [B,EG]4 [EGB]4 | [EAc]2 [EAc]2 [EGB]>[B,EG] [G,B,E]>[B,EG] | [B,DF]6 z2 | %4
w: Asa~Hull * * * * *||||
 [B,EG]2 [B,EG]2 [B,EG]>[A,B,F] [G,B,E]>[B,EG] | [EGB]4 [EAc]4 | %6
w: ||
 [EGB]2 [B,EG]2 [B,EG]>[A,DF] [G,E]>[A,DF] | [G,E]6 z2 | [EAc]2 [EAc]2 [EAc]>[EBd] [Ece]>[EAc] | %9
w: |||
 [EGB]4 [B,EG]4 | [Fd]2 [Fd]2 [Fd]>[Ge] [Af]>[Fd] | e4 z4 | c2 c2 c>[Bd] [ce]>[Ac] | [GB]4 [Ge]4 | %14
w: |||||
 [B,EG]2 [B,EG]2 [B,EG]>[A,DF] [G,E]>[A,DF] | [G,E]6 z2 | c4 c4 | B4 B4 | [Fd]2 [Fd]2 [Af]2 [Ad]2 | %19
w: |||||
 e4 z4 | c4 c4 | B4 B4 | [Fd]2 [Fd]2 [DFc]2 [Ad]2 | e8 | c4 c4 | B4 B4 | [Fd]2 [Fd]2 [Af]2 [Ad]2 | %27
w: ||||||||
 e4 z4 | c4 c4 | B4 B4 | [Fd]2 [Fd]2 [DFc]2 [Ad]2 | e8 |] %32
w: |||||
V:2
 [E,B,E]2 [E,B,E]2 [E,B,E]>[E,A,E] [E,G,]>B,, | E,4 E,4 | A,2 A,2 E,>E, E,>E, | B,,6 z2 | %4
 E,2 E,2 E,>E, E,>E, | E,4 A,,4 | E,2 E,2 B,,>B,, B,,>B,, | E,6 z2 | A,2 A,2 A,>A, A,>A, | %9
 E,4 E,4 | [B,,B,]2 [B,,B,]2 [B,,B,]>[B,,B,] [B,,B,]>[B,,B,] | B,4 z4 | %12
 [A,EA]2 [A,EA]2 [A,EA]>[A,E] [A,E]>[K:bass][A,E] | [E,E]4 [E,B,]4 | E,2 E,2 B,,>B,, B,,>B,, | %15
 E,6 z2 | [A,,A,]4 z2 E2 | z2 E2 z2 E2 | [B,,B,]2 [B,,B,]2 [B,,D]2 [B,,B,]2 | B,2 B,B, E4 | %20
 [A,,A,]4 z2 E2 | z2 E2 z2 E2 | B,2 B,2 B,,2 [B,,B,]2 | B,2 CC [E,B,]4 | [A,,A,]4 z2 E2 | %25
 z2 E2 z2 E2 | [B,,B,]2 [B,,B,]2 [B,,D]2 [B,,B,]2 | B,2 B,B, E4 | [A,,A,]4 z2 E2 | z2 E2 z2 E2 | %30
 B,2 B,2 B,,2 [B,,B,]2 | B,2 CC [E,B,]4 |] %32
V:3
 x8 | x8 | x8 | x8 | x8 | x8 | x8 | x8 | x8 | x8 | x8 | G4- [GB]4 | x8 | x8 | x8 | x8 | %16
 [EA]2 [EA]2 [EA]2 A2 | [EG]2 G2 [EG]2 G2 | x8 | G2 GG [GB]4 | [EA]2 [EA]2 [EA]2 A2 | %21
 [EG]2 G2 [EG]2 G2 | x8 | G2 AA G4 | [EA]2 [EA]2 [EA]2 A2 | [EG]2 G2 [EG]2 G2 | x8 | G2 GG [GB]4 | %28
 [EA]2 [EA]2 [EA]2 A2 | [EG]2 G2 [EG]2 G2 | x8 | G2 AA G4 |] %32
V:4
 x8 | x8 | x8 | x8 | x8 | x8 | x8 | x8 | x8 | x8 | x8 | E,4- [E,E]4 | x15/2[K:bass] x/ | x8 | x8 | %15
 x8 | z4 [A,,A,]4 | E,4 E,4 | x8 | E,8 | z4 [A,,A,]4 | E,4 E,4 | x8 | E,4 z4 | z4 [A,,A,]4 | %25
 E,4 E,4 | x8 | E,8 | z4 [A,,A,]4 | E,4 E,4 | x8 | E,4 z4 |] %32

